src/Pure/16/symbolic/actions/checkbox-mixed-symbolic.svg

<svg width="16px" height="16px" version="1.1" viewBox="0 0 16 16" xmlns="http://www.w3.org/2000/svg">
 <path d="m3 0c-1.662 0-3 1.338-3 3v10c0 1.662 1.338 3 3 3h10c1.662 0 3-1.338 3-3v-10c0-1.662-1.338-3-3-3zm0 1h10c1.108 0 2 0.892 2 2v10c0 1.108-0.892 2-2 2h-10c-1.108 0-2-0.892-2-2v-10c0-1.108 0.892-2 2-2z" fill="#363636"/>
 <rect x="4" y="7" width="8" height="2" rx="1" ry="1" fill="#363636"/>
</svg>

<?xml version="1.0" encoding="UTF-8" standalone="no"?>
<svg
   width="16px"
   height="16px"
   version="1.1"
   viewBox="0 0 16 16"
   id="svg1"
   sodipodi:docname="checkbox-mixed-symbolic.svg"
   inkscape:version="1.4.2 (ebf0e940d0, 2025-05-08)"
   xmlns:inkscape="http://www.inkscape.org/namespaces/inkscape"
   xmlns:sodipodi="http://sodipodi.sourceforge.net/DTD/sodipodi-0.dtd"
   xmlns="http://www.w3.org/2000/svg"
   xmlns:svg="http://www.w3.org/2000/svg">
  <defs
     id="defs1">
    <style
       id="current-color-scheme"
       type="text/css">
    .ColorScheme-Text { color:#363636; }
   </style>
  </defs>
  <sodipodi:namedview
     id="namedview1"
     pagecolor="#ffffff"
     bordercolor="#000000"
     borderopacity="0.25"
     inkscape:showpageshadow="2"
     inkscape:pageopacity="0.0"
     inkscape:pagecheckerboard="0"
     inkscape:deskcolor="#d1d1d1"
     inkscape:zoom="49.6875"
     inkscape:cx="8"
     inkscape:cy="8"
     inkscape:window-width="1920"
     inkscape:window-height="1010"
     inkscape:window-x="0"
     inkscape:window-y="0"
     inkscape:window-maximized="1"
     inkscape:current-layer="svg1" />
  <path
     id="path1"
     style="fill:currentColor"
     class="ColorScheme-Text"
     d="M 3 0 C 1.338 0 0 1.338 0 3 L 0 13 C 0 14.662 1.338 16 3 16 L 13 16 C 14.662 16 16 14.662 16 13 L 16 3 C 16 1.338 14.662 0 13 0 L 3 0 z M 3 1 L 13 1 C 14.108 1 15 1.892 15 3 L 15 13 C 15 14.108 14.108 15 13 15 L 3 15 C 1.892 15 1 14.108 1 13 L 1 3 C 1 1.892 1.892 1 3 1 z " />
  <rect
     style="opacity:1;fill:currentColor"
     id="rect1"
     width="8"
     height="2"
     x="4"
     y="7"
     ry="1"
     class="ColorScheme-Text" />
</svg>
